src/img/icon-magnifier.svg

<?xml version="1.0" encoding="UTF-8"?>
<svg width="19px" height="19px" viewBox="0 0 19 19" version="1.1" xmlns="http://www.w3.org/2000/svg" xmlns:xlink="http://www.w3.org/1999/xlink">
    <!-- Generator: Sketch 55.2 (78181) - https://sketchapp.com -->
    <title>search icon</title>
    <desc>Created with Sketch.</desc>
    <g id="Symbols" stroke="none" stroke-width="1" fill="none" fill-rule="evenodd">
        <g id="Mobile-/-Search-button" transform="translate(-15.000000, -15.000000)" fill="#FFFFFF" fill-rule="nonzero">
            <g id="Search-button">
                <g id="search-icon" transform="translate(15.000000, 15.000000)">
                    <path d="M13.43825,7.427375 L12.64425,7.427375 L12.36825,7.701375 C13.34325,8.838375 13.93625,10.312375 13.93625,11.927375 C13.93625,15.517375 11.02625,18.427375 7.43625,18.427375 C3.84625,18.427375 0.93625,15.517375 0.93625,11.927375 C0.93625,8.337375 3.84625,5.427375 7.43625,5.427375 C9.05125,5.427375 10.52425,6.019375 11.66125,6.993375 L11.93725,6.719375 L11.93725,5.927375 L16.93525,0.936375 L18.42625,2.427375 L13.43825,7.427375 L13.43825,7.427375 Z M7.43625,7.427375 C4.95025,7.427375 2.93625,9.441375 2.93625,11.927375 C2.93625,14.412375 4.95025,16.427375 7.43625,16.427375 C9.92125,16.427375 11.93625,14.412375 11.93625,11.927375 C11.93625,9.441375 9.92125,7.427375 7.43625,7.427375 L7.43625,7.427375 Z" id="Shape" transform="translate(9.681250, 9.681875) scale(1, -1) translate(-9.681250, -9.681875) "></path>
                </g>
            </g>
        </g>
    </g>
</svg>

<svg height="19" viewBox="0 0 19 19" width="19" xmlns="http://www.w3.org/2000/svg"><path d="m13.43825 7.427375h-.794l-.276.274c.975 1.137 1.568 2.611 1.568 4.226 0 3.59-2.91 6.5-6.5 6.5s-6.5-2.91-6.5-6.5 2.91-6.5 6.5-6.5c1.615 0 3.088.592 4.225 1.566l.276-.274v-.792l4.998-4.991 1.491 1.491zm-6.002 0c-2.486 0-4.5 2.014-4.5 4.5 0 2.485 2.014 4.5 4.5 4.5 2.485 0 4.5-2.015 4.5-4.5 0-2.486-2.015-4.5-4.5-4.5z" fill="#fff" transform="matrix(1 0 0 -1 0 19.36375)"/></svg>
